X: 10850
T: Dribbles Of Brandy
R: jig
M: 6/8
K: Eminor
|:EGE G2 A|B2 e dBG|A2 B cBA|BAG FED|
EGE G2 A|B2 e dBG|A2 B cBA|BGE E3:|
|:e2 f gfe|fag fed|e2 f gfe|fed e3|
e2 f gfe|fag fed|edB cBA|BGE E3:|

